!!!!SEGMENT: pl-kk--i-545--010_anonim--krzyzu-swiety.krn
!!!cenid: 18xx:4487
!!!COM: Anonim
!!!COM-rismID: pe30004985
!!!CDT:
!!!CNT:
!!!OTL: Krzyżu święty
!!!PDT:
!!!AGN: Sacred
!!!YEC: Copyright 2022 Narodowy Instytut Fryderyka Chopina (https://polishscores.org)
!!!YEM: License CC-BY-4.0 (https://creativecommons.org/licenses/by/4.0)
!!!SMS-siglum: PL-Kk
!!!SMS-shelfmark: I.545
!!!SMS-variant:
!!!SMS-altvar:
!!!SMS-shelfwork: 010 W
!!!NIFC-rismSourceID: 1001210831
!!!NIFC-rismChildID: 1001210846
!!!NIFC-islandoraID: pl-kk:17058
!!!URL-pdf-islandora: https://repozytorium.nifc.pl/islandora/object/pl-kk%3A17058/datastream/PDF/view
!!!URL-scan: https://polish.musicsources.pl/pl/lokalizacje/galeria/rekopisy/7172/8 @EN{Scan on Polish Music Sources Website} @PL{Skany w portalu Dziedzictwo Muzyki Polskiej w otwartym dostępie}
!!!IIIF:
!!!ONB-nifc: UWAGA: 7r-v
!!!OMD:
!!!AIN: 2 vox
!!!key: B-
**kern	**text	**text	**kern	**text	**text
*part2	*part2	*part2	*part1	*part1	*part1
*staff2	*staff2	*staff2	*staff1	*staff1	*staff1
*I"[Voce]	*	*	*I"[Voce]	*	*
*Ivox	*	*	*Ivox	*	*
*ICvox	*	*	*ICvox	*	*
*clefF4	*	*	*clefG2	*	*
*k[b-e-]	*	*	*k[b-e-]	*	*
*B-:	*	*	*B-:	*	*
*M3/4	*	*	*M3/4	*	*
=1	=1	=1	=1	=1	=1
*^	*	*	*^	*	*
*	*	*	*v:2	*	*	*v:1	*
8G/	8G\	.	SKłoń	8g/	8g\	Krzy-	.
8G/	8G\	.	ga-	8g/	8g\	-żu	.
4G/	4F\	.	-łąz-	4dd/	4bn\	świę-	.
4G/	4En\	.	-Ki	4cc/	4cc\	-ty	.
=2	=2	=2	=2	=2	=2	=2	=2
8B-/	8B-\	.	drze-	8dd/	8dd\	na-	.
8B-/	8G\	.	-wo	8een/	8cc\	-de	.
4A/	4F\	.	świę-	4ff/	4cc\	wszys-	.
4A/	4F\	.	-te	4cc/	4cc\	-tKo	.
=3	=3	=3	=3	=3	=3	=3	=3
8G/	8C\	.	Ul-	8een/	8cc\	drze-	.
8G/	8D\	.	-żyj	8ff/	8cc\	-wo	.
4G/	4En\	.	człon-	4gg/	4cc\	prze-	.
4A/	4F\	.	-Kom	4dd/	4dd\	-naj-	.
=4	=4	=4	=4	=4	=4	=4	=4
8A/	8En\	.	zbyt	8een/	8cc#X\	-szla-	.
8A/	8D\	.	roz-	8ff/	8dd\	-chet-	.
4G/	4AA\	.	-pię-	4ee/	4cc#\	-niej-	.
4F/	4D\	.	-tym	4dd/	4dd\	-sze	.
=5	=5	=5	=5	=5	=5	=5	=5
4F/	4BB-\	.	Od-	4dd/	4b-\	w żad-	.
4F/	4D\	.	-mień	4ff/	4b-\	-nym	.
8G/	8En\	.	te-	8cc/	8b-\	le-	.
8F/	8F\	.	-raz	8cc/	8a\	-sie	.
=6	=6	=6	=6	=6	=6	=6	=6
8F/	8BB-\	.	je-	8dd/	8a\	ta-	.
8G/	8G\	.	-go	8b-/	8b-\	-Kie	.
4F/	4F\	.	sro-	4cc/	4a\	nie	.
4F/	4BB-\	.	-gość	4dd/	4b-\	jest	.
!!LO:LB:g=original
=7	=7	=7	=7	=7	=7	=7	=7
8G/	8G\	.	któ-	8g/	8g\	jaK	.
8G/	8G\	.	-rąś	8dd/	8b-\	na	.
4F#X/	4D\	.	mia-	4dd/	4a\	Któ-	.
4G/	4En\	.	-ło	4b-/	4g\	-rym	.
=8	=8	=8	=8	=8	=8	=8	=8
8.E-/	8.C\	.	z przy-	8.cc/	8.a\	sam	.
16D/	16D\	.	-ro-	16b-/	16g\	Pan	.
4D/	4D\	.	-dze-	4a/	4f#X\	Bóg	.
4BB-/	4GG\	.	-nia	4g/	4g\	jest	.
=9	=9	=9	=9	=9	=9	=9	=9
4B-/	4B-\	.	spuść	4dd/	4b-\	słod-	.
4A/	4A\	.	le-	4ff/	4cc\	-Kie	.
8F/	8F\	.	-Ku-	8cc/	8a\	drze-	.
8F#X/	8E-\	.	-chno	8cc/	8a\	-wo	.
=10	=10	=10	=10	=10	=10	=10	=10
8.F#X/	8.D\	.	i	8.dd/	8.b-\	słod-	.
16G/	16E-\	.	ci-	16b-/	16g\	-Kie	.
4G/	4E-\	.	-chu-	4cc/	4a\	gwoź-	.
4F#/	4D\	.	-chno	4dd/	4a\	-dzie	.
=11	=11	=11	=11	=11	=11	=11	=11
8G/	8G\	.	Cia-	8g/	8g\	roz-	.
8F#X/	8F#\	.	-ło	8dd/	8a\	-Kosz-	.
4G/	4G\	.	Kró-	4dd/	4b-\	-ny	.
4D/	4GG\	.	-la	4b-/	4g\	o-	.
=12	=12	=12	=12	=12	=12	=12	=12
8.E-/	8.C\	.	nie-	8.cc/	8.g\	-woc	.
16D/	16D\	.	-bies-	16b-/	16g\	no-	.
8E-/L	8C\L	.	-Kie-	4a/	8g\L	-si-	.
8D/J	8D\J	.	.	.	8f#X\J	.	.
4BB-/	4GG/	.	-go	4g/	4g\	-ło.	.
*v	*v	*	*	*	*	*	*
*	*	*	*v	*v	*	*
!!LO:LB:g=original
=13||	=13||	=13||	=13||	=13||	=13||
*k[b-e-a-]	*	*	*k[b-e-a-]	*	*
*M4/4	*	*	*M4/4	*	*
*met(c)	*	*	*met(c)	*	*
*^	*	*	*^	*	*
2E-/	2C\	.	2. Ob-	2cc/	2g\	1. Bądź	.
4E-/	4C\	.	-myj	4cc/	4g\	mi	.
4E-/	4C\	.	mnie	4cc/	4g\	li-	.
=14	=14	=14	=14	=14	=14	=14	=14
4G/	4C\	.	z zło-	(4ee-/	(4cc\	-to-	.
4F/	4GG\	.	.	4dd/)	4bn\)	.	.
2E-/	2C\	.	-sci	2cc/	2g\	-ściw	.
=15	=15	=15	=15	=15	=15	=15	=15
4F/	4F\	.	ob-	4dd/	4a-\	Bo-	.
4F/	4FF\	.	-myj	4dd/	4a-\	-że	.
4E-/	4GG\	.	tej	4cc/	4g\	nie-	.
4D/	4GG\	.	go-	4bn/	4g/	-sKoń-	.
=16	=16	=16	=16	=16	=16	=16	=16
2E-/	2C\	.	-dzi-	2cc/	2g\	-czo-	.
2E-/	2C\	.	-ny	2cc/	2g\	-ny	.
=17	=17	=17	=17	=17	=17	=17	=17
2A-/	4A-\	.	O-	2cc/	2a-\	We-	.
.	4G\	.	.	.	.	.	.
4A-/	4F\	.	-czyść	4cc/	4a-\	-dług	.
4A-/	4F\	.	mnie	4cc/	4a-\	[wiel-]	.
=18	=18	=18	=18	=18	=18	=18	=18
4G/	4G\	.	z bru-	(4ee-/	2bn\	-Kie-	.
4F/	4GG\	.	.	4dd/)	.	.	.
2E-/	4C\	.	-du	2cc/	2cc\	-go	.
.	4AA-\	.	.	.	.	.	.
=19	=19	=19	=19	=19	=19	=19	=19
4F/	4FF\	.	w Któ-	4dd/	4a-\	mi-	.
4F/	4FF\	.	-rym	4dd/	4a-\	-ło-	.
4E-/	4GG\	.	mnie	4cc/	4g\	-sier-	.
4D/	4GG\	.	grzech	4bn/	4g\	-dzia	.
!!LO:LB:g=original
=20	=20	=20	=20	=20	=20	=20	=20
2E-/	2C\	.	trzy-	2cc/	2g\	Twe-	.
2E-/	2C\	.	-ma	2cc/	2g\	-go	.
=21!|:	=21!|:	=21!|:	=21!|:	=21!|:	=21!|:	=21!|:	=21!|:
2G/	2E-\	.	Bo	2ee-/	2b-\	We-	.
4A-/	4AA-\	.	ja	4ee-/	4cc\	-dług	.
4c/	4AA-\	.	po-	4ee-/	4cc\	li-	.
=22	=22	=22	=22	=22	=22	=22	=22
4B-/	(4BB-\	.	-zna-	(4gg/	[4dd\	-to-	.
4A-X/	4BBn\)	.	.	4ff/)	4dd\]	.	.
2G/	(4C\	.	-ję	2ee-/	(4dd\	-ści	.
.	4E-\)	.	.	.	4cc\)	.	.
=23	=23	=23	=23	=23	=23	=23	=23
4F\	2A-/	.	wiel-	4dd/	4cc\	Twej	.
4F\	.	.	-Kość	4dd/	4cc/	nie-	.
4G/	4G\	.	mo-	4dd/	2bn\	-po-	.
4G/	4GG\	.	-jej	4ff/	.	-li-	.
=24	=24	=24	=24	=24	=24	=24	=24
(4G/	(4C\	.	wi-	(4ee-/	(4cc\	-czo-	.
4F/)	4FF\)	.	.	4dd/)	4a-X\)	.	.
4E-X/	2GG\	.	-ny	(4cc/	2g\	-nej	.
4D/	.	.	.	4bn/)	.	.	.
=25	=25	=25	=25	=25	=25	=25	=25
2C/	2AA-X/	.	I	2cc/	2e-\	Chciej	.
4E-/	4AA-\	.	grzech	4cc/	4a-\	zma-	.
4F/	4AA-\	.	mój	4cc/	4a-\	-zać	.
=26	=26	=26	=26	=26	=26	=26	=26
2G/	2GG\	.	za-	(4ee-/	2b-\	mnó-	.
.	.	.	.	4dd/)	.	.	.
2E-/	(4AA-\	.	-wsze	2cc/	2a-\	-stwo	.
.	4GG\)	.	.	.	.	.	.
!!LO:PB:g=original
=27	=27	=27	=27	=27	=27	=27	=27
4F/	4FF\	.	przed	4dd/	4a-\	prze-	.
4F/	4FF\	.	me-	4dd/	4a-\	-wi-	.
4D/	4GG\	.	-mi	4cc/	4g\	-nie-	.
4D/	4GG\	.	o-	4bn/	4g\	-nia	.
=28	=28	=28	=28	=28	=28	=28	=28
(4E-/	4C\	.	-czy-	2cc/	(4g\	me-	.
4F/)	(>8FF\L	.	.	.	4a-X\)	.	.
.	8AA-\J)	.	.	.	.	.	.
2E-/	2C\	.	-ma	2cc/	2g\	-go	.
*v	*v	*	*	*	*	*	*
*	*	*	*v	*v	*	*
=:|!	=:|!	=:|!	=:|!	=:|!	=:|!
*-	*-	*-	*-	*-	*-
!!!system-decoration: (s1,s2)
!!!RDF**kern: < = below
!!!RDF**kern: > = above
!!!ENC: Filip Voros
!!!END: 2023-10-27
!!!EED: Marta Chmielewska
!!!EEV: 2024-04-22
